vendor/shopware/storefront/Resources/app/storefront/dist/assets/icon/default/stack-circle.svg

<svg xmlns="http://www.w3.org/2000/svg" width="24" height="24" viewBox="0 0 24 24">
  <path fill="#758CA3" fill-rule="evenodd" d="M24,12 C24,18.627417 18.627417,24 12,24 C5.372583,24 8.11624501e-16,18.627417 0,12 C6.29380286e-15,5.372583 5.372583,1.21743707e-15 12,0 C18.627417,5.58919772e-16 24,5.372583 24,12 Z M12,2 C6.4771525,2 2,6.4771525 2,12 C2,17.5228475 6.4771525,22 12,22 C17.5228475,22 22,17.5228475 22,12 C22,6.4771525 17.5228475,2 12,2 Z M8,13 C7.44771525,13 7,12.5522847 7,12 C7,11.4477153 7.44771525,11 8,11 L16,11 C16.5522847,11 17,11.4477153 17,12 C17,12.5522847 16.5522847,13 16,13 L8,13 Z M8,9 C7.44771525,9 7,8.55228475 7,8 C7,7.44771525 7.44771525,7 8,7 L16,7 C16.5522847,7 17,7.44771525 17,8 C17,8.55228475 16.5522847,9 16,9 L8,9 Z M8,17 C7.44771525,17 7,16.5522847 7,16 C7,15.4477153 7.44771525,15 8,15 L16,15 C16.5522847,15 17,15.4477153 17,16 C17,16.5522847 16.5522847,17 16,17 L8,17 Z"/>
</svg>

<svg xmlns="http://www.w3.org/2000/svg" width="24" height="24" viewBox="0 0 24 24"><path fill="#758CA3" fill-rule="evenodd" d="M24 12c0 6.6274-5.3726 12-12 12S0 18.6274 0 12 5.3726 0 12 0s12 5.3726 12 12zM12 2C6.4772 2 2 6.4772 2 12s4.4772 10 10 10 10-4.4772 10-10S17.5228 2 12 2zM8 13c-.5523 0-1-.4477-1-1s.4477-1 1-1h8c.5523 0 1 .4477 1 1s-.4477 1-1 1H8zm0-4c-.5523 0-1-.4477-1-1s.4477-1 1-1h8c.5523 0 1 .4477 1 1s-.4477 1-1 1H8zm0 8c-.5523 0-1-.4477-1-1s.4477-1 1-1h8c.5523 0 1 .4477 1 1s-.4477 1-1 1H8z"/></svg>
